X:103
T:British Fishery. JJo8.103, The
B:J.Johnson Choice Collection Vol 8 1758
Z:vmp.Simon Wilson 2013 www.village-music-project.org.uk
T:Britifh Fifhery. JJo8.103, The
M:C|
L:1/8
Q:1/2=90
K:A
|:cd|ecBAa2(gf)|ecBAB2(AB)|cA- AB/c/ defg|aedcB2:|
|:GA|BGFEd2(cB)|Acef =g2(fe)|fa^gbe2d2|cB/A/ BA/G/A2:|
